packages/icons/plugins/NFTAvatar.svg

<svg width="37" height="36" viewBox="0 0 37 36" xmlns="http://www.w3.org/2000/svg">
<g>
        <path
            d="M4.83325 3.5C4.83325 2.39543 5.72868 1.5 6.83325 1.5H29.8333C30.9378 1.5 31.8333 2.39543 31.8333 3.5V32.5C31.8333 33.6046 30.9378 34.5 29.8333 34.5H6.83325C5.72868 34.5 4.83325 33.6046 4.83325 32.5V3.5Z"
            fill="url(#paint0_linear_35_22290)"
        />
        <path
            d="M13.6273 6.90742C15.4435 5.44402 17.9166 5.03182 20.1702 5.46022C22.2222 5.94982 24.0582 7.33042 25.0536 9.19702C25.743 10.4246 25.9572 11.8466 25.9662 13.2362C25.9644 16.838 25.9662 20.438 25.9644 24.0398C25.905 24.5096 26.2758 24.8444 26.5116 25.2044C27.6312 26.81 28.155 28.7576 28.2468 30.698C27.5736 30.7016 26.9004 30.6998 26.2272 30.698C26.1246 29.4452 25.9032 28.1924 25.3164 27.0674C23.4786 27.0584 21.6426 27.098 19.8048 27.08C19.794 25.7156 19.7994 24.3512 19.7976 22.9868C18.2298 22.6196 16.5739 22.8932 15.1015 23.5016C12.2881 24.6878 10.3837 27.6578 10.3945 30.6998H8.42525C8.33165 28.295 9.32885 25.9262 10.9021 24.1352C11.1235 23.9264 11.0443 23.5988 11.0677 23.3288C11.0479 20.5676 11.0803 17.8046 11.0515 15.0434C10.9831 13.6682 11.0263 12.2912 11.0893 10.916C11.2531 9.27082 12.2629 7.80562 13.6273 6.90742ZM20.073 7.46362C20.2998 8.10262 20.919 8.50582 21.1638 9.14302C21.9324 10.5722 21.7146 12.2264 21.7398 13.7816C21.7524 17.5634 21.7488 21.3434 21.7506 25.1252C22.5048 25.127 23.2608 25.1306 24.015 25.1162C24.0096 21.1562 24.0114 17.1944 24.015 13.2344C24.006 12.2786 23.9106 11.294 23.484 10.4228C22.8522 9.00082 21.5562 7.91362 20.073 7.46362ZM14.4175 8.75602C13.4221 9.40582 12.9289 10.6262 12.9667 11.789C15.2491 11.8106 17.5296 11.7962 19.812 11.798C19.893 10.2806 18.912 8.73982 17.4108 8.35102C16.4101 7.99642 15.3247 8.28082 14.4175 8.75602ZM13.0261 13.7366C13.0153 14.5484 13.0441 15.4016 13.4725 16.1198C14.1097 17.3276 15.4309 18.0692 16.7826 18.1106C16.7845 18.755 16.7845 19.3994 16.7826 20.0456C15.3841 20.015 14.0413 19.4696 12.9829 18.5624C13.0027 19.8206 12.9829 21.0788 12.9973 22.3388C14.9899 21.0644 17.4649 20.5298 19.803 20.9042C19.7904 18.5156 19.8012 16.1252 19.7958 13.7366C17.5404 13.7348 15.2833 13.7348 13.0261 13.7366Z"
            fill="white"
        />
        <defs>
            <linearGradient
                id="paint0_linear_35_22290"
                x1="21.0748"
                y1="1.5"
                x2="21.0748"
                y2="34.4996"
                gradient-units="userSpaceOnUse">
                <stop stop-color="#FF8D5C" />
                <stop offset="0.99" stop-color="#FFC49A" />
            </linearGradient>
        </defs>
    </g>
</svg>

<svg xmlns="http://www.w3.org/2000/svg" width="37" height="36">
    <path fill="url(#NFTAvatar_svg__a)" d="M4.833 3.5a2 2 0 0 1 2-2h23a2 2 0 0 1 2 2v29a2 2 0 0 1-2 2h-23a2 2 0 0 1-2-2v-29Z"/>
    <path fill="#fff" d="M13.627 6.907c1.816-1.463 4.29-1.875 6.543-1.447 2.052.49 3.888 1.87 4.884 3.737.689 1.228.903 2.65.912 4.04-.002 3.601 0 7.201-.002 10.803-.059.47.312.804.548 1.164 1.12 1.606 1.643 3.554 1.735 5.494-.673.004-1.347.002-2.02 0-.102-1.253-.324-2.506-.91-3.63-1.838-.01-3.674.03-5.512.012-.011-1.364-.006-2.729-.007-4.093-1.568-.367-3.224-.094-4.696.515-2.814 1.186-4.718 4.156-4.707 7.198h-1.97c-.093-2.405.904-4.774 2.477-6.565.222-.209.142-.536.166-.806-.02-2.761.012-5.524-.016-8.286-.069-1.375-.026-2.752.037-4.127.164-1.645 1.174-3.11 2.538-4.009Zm6.446.557c.227.639.846 1.042 1.09 1.679.77 1.43.552 3.083.577 4.639.012 3.781.009 7.561.01 11.343.755.002 1.51.006 2.265-.009-.005-3.96-.004-7.922 0-11.882-.009-.955-.104-1.94-.531-2.811-.632-1.422-1.928-2.51-3.411-2.96Zm-5.655 1.292c-.996.65-1.49 1.87-1.451 3.033 2.282.022 4.563.007 6.845.009.081-1.517-.9-3.058-2.401-3.447-1-.355-2.086-.07-2.994.405Zm-1.392 4.98c-.01.812.018 1.666.447 2.384.637 1.208 1.958 1.95 3.31 1.99.002.645.002 1.29 0 1.936-1.399-.031-2.742-.576-3.8-1.484.02 1.259 0 2.517.014 3.777 1.993-1.275 4.468-1.81 6.806-1.435-.013-2.388-.002-4.779-.007-7.167-2.256-.002-4.513-.002-6.77 0Z"/>
    <defs>
        <linearGradient id="NFTAvatar_svg__a" x1="21.075" x2="21.075" y1="1.5" y2="34.5">
            <stop stop-color="#FF8D5C"/>
            <stop offset=".99" stop-color="#FFC49A"/>
        </linearGradient>
    </defs>
</svg>
